X:1
T: Jimmie's Jig
C:C Sherrit
Q:180
R:Jig
K:A
M:6/8
L:1/16
B2|:A2E2A2 c2A2c2|e2f2g2 a4f2|e2c2e2 f2e2c2|d2B2B2 B4c2|
A2E2A2 c2A2c2|e2f2g2 a2g2f2|e2a2c2 e2d2B2|1c2A2A2 A4B2:|2c2A2A2 A4e2|
|:f2d2f2 a2g2f2|e2f2d2 c4e2|d2B2G2 E2G2B2|c2A2f2 e4e2|
f2d2f2 a2g2f2|e2f2d2 c2e2e2|f2a2c2 e2d2B2|1c2A2A2 A4e2:|2c2A2A2 A4||
